assets/img/syrinx_logo.svg

<svg width="283" height="75" viewBox="0 0 283 75" xmlns="http://www.w3.org/2000/svg"><g fill="none" fill-rule="evenodd"><path d="M55.07 57.199c-.901-.395-1.07-.676-1.07-1.916 0-3.095.225-6.474.281-7.375.057-.844.225-1.465.676-1.465.507 0 .563.507.563.957 0 .733.225 1.916.507 2.872 1.239 4.167 4.56 5.687 8.051 5.687 5.068 0 7.545-3.434 7.545-6.418 0-2.76-.844-5.406-5.517-9.01l-2.591-2.027c-6.193-4.842-8.333-8.783-8.333-13.343 0-6.194 5.18-10.642 13.007-10.642 3.66 0 6.024.563 7.488.957.507.113.789.282.789.676 0 .732-.226 2.365-.226 6.756 0 1.238-.168 1.69-.619 1.69-.394 0-.563-.338-.563-1.014 0-.507-.282-2.252-1.464-3.716-.844-1.07-2.477-2.759-6.137-2.759-4.167 0-6.701 2.421-6.701 5.799 0 2.59 1.295 4.561 5.969 8.109l1.577 1.182c6.756 5.237 9.234 9.008 9.234 14.358 0 3.265-1.239 7.15-5.293 9.797-2.815 1.801-5.968 2.307-8.953 2.307-3.266 0-5.799-.393-8.22-1.462m43.171-13.908c0-3.041-.563-4.279-1.295-5.912-.394-.901-7.939-13.288-9.91-16.216-1.408-2.084-2.815-3.491-3.885-4.11-.732-.394-1.689-.732-2.364-.732-.451 0-.845-.112-.845-.507 0-.338.394-.507 1.07-.507 1.013 0 5.236.169 7.094.169 1.183 0 3.491-.169 6.025-.169.563 0 .845.169.845.507 0 .338-.394.395-1.239.62-.507.112-.788.563-.788 1.013 0 .45.281 1.126.675 1.914.789 1.69 8.671 15.259 9.572 16.834.563-1.349 7.657-13.737 8.446-15.483.563-1.238.788-2.195.788-2.927 0-.563-.225-1.182-1.182-1.408-.507-.112-1.014-.225-1.014-.563 0-.394.282-.507.957-.507 1.858 0 3.66.169 5.293.169 1.239 0 4.955-.169 6.025-.169.619 0 1.013.113 1.013.451 0 .394-.45.563-1.07.563-.563 0-1.633.225-2.477.676-1.183.563-1.802 1.238-3.04 2.758-1.859 2.253-9.742 15.483-10.755 17.905-.845 2.028-.845 3.772-.845 5.631v4.617c0 .901 0 3.266.169 5.63.113 1.634.62 2.871 2.309 3.097.788.113 2.027.224 2.815.224.62 0 .901.17.901.452 0 .394-.45.563-1.182.563-3.548 0-7.095-.169-8.615-.169-1.408 0-4.955.169-7.038.169-.788 0-1.238-.114-1.238-.563 0-.282.281-.452.9-.452.789 0 1.464-.111 1.971-.224 1.126-.226 1.633-1.463 1.745-3.097.169-2.364.169-4.729.169-5.63v-4.617" fill="#FFF"/><path d="M128.659 31.635c0-8.558 0-10.134-.113-11.936-.112-1.914-.563-2.815-2.421-3.209-.45-.113-1.408-.169-2.196-.169-.619 0-.957-.112-.957-.507 0-.394.394-.507 1.238-.507 2.985 0 6.532.169 7.715.169 1.914 0 6.193-.169 7.939-.169 3.547 0 7.319.338 10.36 2.422 1.576 1.069 3.828 3.941 3.828 7.712 0 4.167-1.745 7.997-7.432 12.614 5.011 6.306 8.896 11.316 12.218 14.808 3.154 3.266 5.462 3.66 6.307 3.828.619.113 1.126.168 1.576.168.45 0 .676.17.676.452 0 .449-.395.563-1.07.563h-5.349c-3.153 0-4.561-.282-6.025-1.07-2.421-1.296-4.56-3.941-7.713-8.277-2.253-3.096-4.843-6.926-5.575-7.77-.281-.338-.619-.394-1.013-.394l-4.899-.113c-.281 0-.45.113-.45.449v.79c0 5.236 0 9.685.282 12.049.168 1.634.506 2.871 2.195 3.097.845.113 2.084.224 2.76.224.45 0 .675.17.675.452 0 .394-.394.563-1.126.563-3.266 0-7.432-.169-8.277-.169-1.07 0-4.617.169-6.869.169-.733 0-1.127-.169-1.127-.563 0-.282.226-.452.901-.452.845 0 1.521-.111 2.028-.224 1.126-.226 1.407-1.463 1.632-3.097.282-2.364.282-6.813.282-11.993v-9.91zm6.644 4.449c0 .619.112.844.507 1.012 1.182.395 2.871.564 4.279.564 2.252 0 2.984-.224 3.997-.957 1.689-1.238 3.322-3.829 3.322-8.445 0-7.996-5.292-10.304-8.614-10.304-1.408 0-2.421.056-2.984.225-.395.113-.507.338-.507.788v17.117z" fill="#FFF"/><path d="M171.167 31.635c0-8.558 0-10.134-.111-11.936-.113-1.914-.676-2.871-1.915-3.153-.619-.169-1.351-.225-2.027-.225-.563 0-.901-.112-.901-.563 0-.338.451-.451 1.351-.451 2.141 0 5.687.169 7.32.169 1.408 0 4.731-.169 6.869-.169.733 0 1.183.113 1.183.451 0 .451-.338.563-.901.563s-1.013.056-1.689.169c-1.52.281-1.971 1.239-2.083 3.209-.113 1.802-.113 3.378-.113 11.936v9.91c0 5.462 0 9.91.225 12.331.169 1.52.564 2.533 2.252 2.759.789.113 2.028.224 2.873.224.619 0 .9.17.9.452 0 .394-.45.563-1.07.563-3.715 0-7.263-.169-8.784-.169-1.295 0-4.841.169-7.094.169-.732 0-1.126-.169-1.126-.563 0-.282.225-.452.901-.452.844 0 1.521-.111 2.026-.224 1.127-.226 1.465-1.182 1.633-2.815.281-2.365.281-6.813.281-12.275v-9.91" fill="#FFF"/><path d="M192.771 50.217c.112 4.39.845 5.855 1.971 6.249.957.338 2.027.393 2.927.393.62 0 .957.114.957.452 0 .449-.506.563-1.294.563-3.661 0-5.913-.169-6.982-.169-.507 0-3.153.169-6.081.169-.732 0-1.239-.057-1.239-.563 0-.338.338-.452.901-.452.732 0 1.745-.055 2.533-.281 1.465-.449 1.69-2.082 1.746-6.98l.507-33.333c0-1.127.169-1.915.732-1.915.619 0 1.127.732 2.084 1.746.675.732 9.233 9.91 17.453 18.074 3.829 3.827 11.431 11.935 12.389 12.837h.281l-.564-25.28c-.055-3.435-.563-4.505-1.914-5.068-.845-.338-2.196-.338-2.984-.338-.676 0-.902-.169-.902-.507 0-.45.621-.507 1.465-.507 2.928 0 5.63.169 6.813.169.619 0 2.759-.169 5.517-.169.733 0 1.295.057 1.295.507 0 .338-.338.507-1.013.507-.563 0-1.014 0-1.69.169-1.576.45-2.026 1.633-2.082 4.785l-.62 35.529c0 1.239-.226 1.746-.731 1.746-.62 0-1.295-.62-1.914-1.239-3.548-3.379-10.755-10.754-16.612-16.554-6.137-6.081-12.387-13.118-13.4-14.189h-.168l.619 23.649" fill="#FFF"/><path d="M252.901 34.338c1.802 2.758 22.341 35.142 23.747 36.944.957 1.239 1.803 1.915 3.268 2.366.956.282 1.631.336 2.138.336.395 0 .733.115.733.452 0 .394-.45.564-1.071.564h-1.689c-1.352 0-5.801 0-10.135-.114-1.463-.056-1.914-.169-1.914-.562 0-.34.281-.508.787-.62.281-.056.507-.563.114-1.296-3.096-5.516-17.723-28.217-20.313-32.439l-8.334 13.457c-.563.9-.844 1.746-.787 2.365.055.507.562.844 1.069.957.338.056.845.111 1.295.111.338 0 .676.17.676.508 0 .393-.394.507-1.126.507h-1.014c-.338 0-3.885-.169-5.293-.169-1.069 0-3.828.169-4.728.169h-.958c-.564 0-.845-.169-.845-.507 0-.338.338-.508.789-.508.394 0 1.238-.055 2.083-.281 1.633-.449 2.702-1.519 4.616-4.223l10.754-15.371-9.683-16.046c-1.352-2.252-2.704-3.604-4.674-4.223-.901-.281-1.801-.394-2.364-.394-.338 0-.564-.169-.564-.563 0-.338.395-.451 1.127-.451 1.352 0 5.912.169 8.558.169.788 0 3.941-.169 6.024-.169.789 0 1.127.113 1.127.507 0 .395-.338.507-.846.507-.338 0-1.069.056-1.519.225-.507.169-.676.563-.676.901 0 .338.225 1.013.562 1.632 2.422 4.505 4.956 8.615 7.152 12.444 1.634-2.478 6.812-10.304 7.657-11.88.451-.789.62-1.689.62-2.14 0-.394-.394-.844-.958-1.013-.562-.169-1.351-.169-1.802-.169-.337 0-.675-.112-.675-.507 0-.338.395-.507 1.183-.507 2.195 0 4.56.169 5.63.169 1.127 0 3.435-.169 5.518-.169.619 0 1.013.169 1.013.507 0 .338-.338.507-.9.507-.565 0-1.24.113-2.027.338-1.295.338-2.421 1.914-4.112 4.392l-9.233 13.287M33.333 35.983V.58h13.86v37.623c-3.66.08-8.453-.77-13.86-2.219m13.859 22.811h-13.86V43.241l13.86 7.248v8.306M16.698 11.668h13.86v23.536c-4.405-1.295-9.108-2.907-13.86-4.689V11.668m13.86 47.127h-13.86V34.524l13.86 7.265v17.006m-16.63 0H.066V25.783c4.042 2.13 8.634 4.545 13.862 7.286v25.726M.066 22.755h13.862v6.709A392.424 392.424 0 0 1 .066 23.772v-1.017" fill="#FFF"/><path d="M16.698 30.515v4.009c-.937-.493-1.87-.981-2.77-1.455v-3.605c.925.357 1.85.704 2.77 1.051m16.635 5.468v7.258c-.94-.493-1.862-.976-2.775-1.452v-6.585c.942.276 1.864.534 2.775.78"/></g></svg>

<?xml version="1.0" encoding="UTF-8" standalone="no"?>
<svg width="283px" height="75px" viewBox="0 0 283 75" version="1.1" xmlns="http://www.w3.org/2000/svg" xmlns:xlink="http://www.w3.org/1999/xlink">
    <defs></defs>
    <g id="Page-1" stroke="none" stroke-width="1" fill="none" fill-rule="evenodd">
        <g id="syrinxlogo01">
            <path d="M55.07,57.199 C54.169,56.804 54,56.523 54,55.283 C54,52.188 54.225,48.809 54.281,47.908 C54.338,47.064 54.506,46.443 54.957,46.443 C55.464,46.443 55.52,46.95 55.52,47.4 C55.52,48.133 55.745,49.316 56.027,50.272 C57.266,54.439 60.587,55.959 64.078,55.959 C69.146,55.959 71.623,52.525 71.623,49.541 C71.623,46.781 70.779,44.135 66.106,40.531 L63.515,38.504 C57.322,33.662 55.182,29.721 55.182,25.161 C55.182,18.967 60.362,14.519 68.189,14.519 C71.849,14.519 74.213,15.082 75.677,15.476 C76.184,15.589 76.466,15.758 76.466,16.152 C76.466,16.884 76.24,18.517 76.24,22.908 C76.24,24.146 76.072,24.598 75.621,24.598 C75.227,24.598 75.058,24.26 75.058,23.584 C75.058,23.077 74.776,21.332 73.594,19.868 C72.75,18.798 71.117,17.109 67.457,17.109 C63.29,17.109 60.756,19.53 60.756,22.908 C60.756,25.498 62.051,27.469 66.725,31.017 L68.302,32.199 C75.058,37.436 77.536,41.207 77.536,46.557 C77.536,49.822 76.297,53.707 72.243,56.354 C69.428,58.155 66.275,58.661 63.29,58.661 C60.024,58.661 57.491,58.268 55.07,57.199" id="Fill-1" fill="#FFFFFF"></path>
            <path d="M98.241,43.291 C98.241,40.25 97.678,39.012 96.946,37.379 C96.552,36.478 89.007,24.091 87.036,21.163 C85.628,19.079 84.221,17.672 83.151,17.053 C82.419,16.659 81.462,16.321 80.787,16.321 C80.336,16.321 79.942,16.209 79.942,15.814 C79.942,15.476 80.336,15.307 81.012,15.307 C82.025,15.307 86.248,15.476 88.106,15.476 C89.289,15.476 91.597,15.307 94.131,15.307 C94.694,15.307 94.976,15.476 94.976,15.814 C94.976,16.152 94.582,16.209 93.737,16.434 C93.23,16.546 92.949,16.997 92.949,17.447 C92.949,17.897 93.23,18.573 93.624,19.361 C94.413,21.051 102.295,34.62 103.196,36.195 C103.759,34.846 110.853,22.458 111.642,20.712 C112.205,19.474 112.43,18.517 112.43,17.785 C112.43,17.222 112.205,16.603 111.248,16.377 C110.741,16.265 110.234,16.152 110.234,15.814 C110.234,15.42 110.516,15.307 111.191,15.307 C113.049,15.307 114.851,15.476 116.484,15.476 C117.723,15.476 121.439,15.307 122.509,15.307 C123.128,15.307 123.522,15.42 123.522,15.758 C123.522,16.152 123.072,16.321 122.452,16.321 C121.889,16.321 120.819,16.546 119.975,16.997 C118.792,17.56 118.173,18.235 116.935,19.755 C115.076,22.008 107.193,35.238 106.18,37.66 C105.335,39.688 105.335,41.432 105.335,43.291 L105.335,47.908 C105.335,48.809 105.335,51.174 105.504,53.538 C105.617,55.172 106.124,56.409 107.813,56.635 C108.601,56.748 109.84,56.859 110.628,56.859 C111.248,56.859 111.529,57.029 111.529,57.311 C111.529,57.705 111.079,57.874 110.347,57.874 C106.799,57.874 103.252,57.705 101.732,57.705 C100.324,57.705 96.777,57.874 94.694,57.874 C93.906,57.874 93.456,57.76 93.456,57.311 C93.456,57.029 93.737,56.859 94.356,56.859 C95.145,56.859 95.82,56.748 96.327,56.635 C97.453,56.409 97.96,55.172 98.072,53.538 C98.241,51.174 98.241,48.809 98.241,47.908 L98.241,43.291" id="Fill-2" fill="#FFFFFF"></path>
            <path d="M128.659,31.635 C128.659,23.077 128.659,21.501 128.546,19.699 C128.434,17.785 127.983,16.884 126.125,16.49 C125.675,16.377 124.717,16.321 123.929,16.321 C123.31,16.321 122.972,16.209 122.972,15.814 C122.972,15.42 123.366,15.307 124.21,15.307 C127.195,15.307 130.742,15.476 131.925,15.476 C133.839,15.476 138.118,15.307 139.864,15.307 C143.411,15.307 147.183,15.645 150.224,17.729 C151.8,18.798 154.052,21.67 154.052,25.441 C154.052,29.608 152.307,33.438 146.62,38.055 C151.631,44.361 155.516,49.371 158.838,52.863 C161.992,56.129 164.3,56.523 165.145,56.691 C165.764,56.804 166.271,56.859 166.721,56.859 C167.171,56.859 167.397,57.029 167.397,57.311 C167.397,57.76 167.002,57.874 166.327,57.874 L160.978,57.874 C157.825,57.874 156.417,57.592 154.953,56.804 C152.532,55.508 150.393,52.863 147.24,48.527 C144.987,45.431 142.397,41.601 141.665,40.757 C141.384,40.419 141.046,40.363 140.652,40.363 L135.753,40.25 C135.472,40.25 135.303,40.363 135.303,40.699 L135.303,41.489 C135.303,46.725 135.303,51.174 135.585,53.538 C135.753,55.172 136.091,56.409 137.78,56.635 C138.625,56.748 139.864,56.859 140.54,56.859 C140.99,56.859 141.215,57.029 141.215,57.311 C141.215,57.705 140.821,57.874 140.089,57.874 C136.823,57.874 132.657,57.705 131.812,57.705 C130.742,57.705 127.195,57.874 124.943,57.874 C124.21,57.874 123.816,57.705 123.816,57.311 C123.816,57.029 124.042,56.859 124.717,56.859 C125.562,56.859 126.238,56.748 126.745,56.635 C127.871,56.409 128.152,55.172 128.377,53.538 C128.659,51.174 128.659,46.725 128.659,41.545 L128.659,31.635 L128.659,31.635 Z M135.303,36.084 C135.303,36.703 135.415,36.928 135.81,37.096 C136.992,37.491 138.681,37.66 140.089,37.66 C142.341,37.66 143.073,37.436 144.086,36.703 C145.775,35.465 147.408,32.874 147.408,28.258 C147.408,20.262 142.116,17.954 138.794,17.954 C137.386,17.954 136.373,18.01 135.81,18.179 C135.415,18.292 135.303,18.517 135.303,18.967 L135.303,36.084 L135.303,36.084 Z" id="Fill-3" fill="#FFFFFF"></path>
            <path d="M171.167,31.635 C171.167,23.077 171.167,21.501 171.056,19.699 C170.943,17.785 170.38,16.828 169.141,16.546 C168.522,16.377 167.79,16.321 167.114,16.321 C166.551,16.321 166.213,16.209 166.213,15.758 C166.213,15.42 166.664,15.307 167.564,15.307 C169.705,15.307 173.251,15.476 174.884,15.476 C176.292,15.476 179.615,15.307 181.753,15.307 C182.486,15.307 182.936,15.42 182.936,15.758 C182.936,16.209 182.598,16.321 182.035,16.321 C181.472,16.321 181.022,16.377 180.346,16.49 C178.826,16.771 178.375,17.729 178.263,19.699 C178.15,21.501 178.15,23.077 178.15,31.635 L178.15,41.545 C178.15,47.007 178.15,51.455 178.375,53.876 C178.544,55.396 178.939,56.409 180.627,56.635 C181.416,56.748 182.655,56.859 183.5,56.859 C184.119,56.859 184.4,57.029 184.4,57.311 C184.4,57.705 183.95,57.874 183.33,57.874 C179.615,57.874 176.067,57.705 174.546,57.705 C173.251,57.705 169.705,57.874 167.452,57.874 C166.72,57.874 166.326,57.705 166.326,57.311 C166.326,57.029 166.551,56.859 167.227,56.859 C168.071,56.859 168.748,56.748 169.253,56.635 C170.38,56.409 170.718,55.453 170.886,53.82 C171.167,51.455 171.167,47.007 171.167,41.545 L171.167,31.635" id="Fill-4" fill="#FFFFFF"></path>
            <path d="M192.771,50.217 C192.883,54.607 193.616,56.072 194.742,56.466 C195.699,56.804 196.769,56.859 197.669,56.859 C198.289,56.859 198.626,56.973 198.626,57.311 C198.626,57.76 198.12,57.874 197.332,57.874 C193.671,57.874 191.419,57.705 190.35,57.705 C189.843,57.705 187.197,57.874 184.269,57.874 C183.537,57.874 183.03,57.817 183.03,57.311 C183.03,56.973 183.368,56.859 183.931,56.859 C184.663,56.859 185.676,56.804 186.464,56.578 C187.929,56.129 188.154,54.496 188.21,49.598 L188.717,16.265 C188.717,15.138 188.886,14.35 189.449,14.35 C190.068,14.35 190.576,15.082 191.533,16.096 C192.208,16.828 200.766,26.006 208.986,34.17 C212.815,37.997 220.417,46.105 221.375,47.007 L221.656,47.007 L221.092,21.727 C221.037,18.292 220.529,17.222 219.178,16.659 C218.333,16.321 216.982,16.321 216.194,16.321 C215.518,16.321 215.292,16.152 215.292,15.814 C215.292,15.364 215.913,15.307 216.757,15.307 C219.685,15.307 222.387,15.476 223.57,15.476 C224.189,15.476 226.329,15.307 229.087,15.307 C229.82,15.307 230.382,15.364 230.382,15.814 C230.382,16.152 230.044,16.321 229.369,16.321 C228.806,16.321 228.355,16.321 227.679,16.49 C226.103,16.94 225.653,18.123 225.597,21.275 L224.977,56.804 C224.977,58.043 224.751,58.55 224.246,58.55 C223.626,58.55 222.951,57.93 222.332,57.311 C218.784,53.932 211.577,46.557 205.72,40.757 C199.583,34.676 193.333,27.639 192.32,26.568 L192.152,26.568 L192.771,50.217" id="Fill-5" fill="#FFFFFF"></path>
            <path d="M252.901,34.338 C254.703,37.096 275.242,69.48 276.648,71.282 C277.605,72.521 278.451,73.197 279.916,73.648 C280.872,73.93 281.547,73.984 282.054,73.984 C282.449,73.984 282.787,74.099 282.787,74.436 C282.787,74.83 282.337,75 281.716,75 L280.027,75 C278.675,75 274.226,75 269.892,74.886 C268.429,74.83 267.978,74.717 267.978,74.324 C267.978,73.984 268.259,73.816 268.765,73.704 C269.046,73.648 269.272,73.141 268.879,72.408 C265.783,66.892 251.156,44.191 248.566,39.969 L240.232,53.426 C239.669,54.326 239.388,55.172 239.445,55.791 C239.5,56.298 240.007,56.635 240.514,56.748 C240.852,56.804 241.359,56.859 241.809,56.859 C242.147,56.859 242.485,57.029 242.485,57.367 C242.485,57.76 242.091,57.874 241.359,57.874 L240.345,57.874 C240.007,57.874 236.46,57.705 235.052,57.705 C233.983,57.705 231.224,57.874 230.324,57.874 L229.366,57.874 C228.802,57.874 228.521,57.705 228.521,57.367 C228.521,57.029 228.859,56.859 229.31,56.859 C229.704,56.859 230.548,56.804 231.393,56.578 C233.026,56.129 234.095,55.059 236.009,52.355 L246.763,36.984 L237.08,20.938 C235.728,18.686 234.376,17.334 232.406,16.715 C231.505,16.434 230.605,16.321 230.042,16.321 C229.704,16.321 229.478,16.152 229.478,15.758 C229.478,15.42 229.873,15.307 230.605,15.307 C231.957,15.307 236.517,15.476 239.163,15.476 C239.951,15.476 243.104,15.307 245.187,15.307 C245.976,15.307 246.314,15.42 246.314,15.814 C246.314,16.209 245.976,16.321 245.468,16.321 C245.13,16.321 244.399,16.377 243.949,16.546 C243.442,16.715 243.273,17.109 243.273,17.447 C243.273,17.785 243.498,18.46 243.835,19.079 C246.257,23.584 248.791,27.694 250.987,31.523 C252.621,29.045 257.799,21.219 258.644,19.643 C259.095,18.854 259.264,17.954 259.264,17.503 C259.264,17.109 258.87,16.659 258.306,16.49 C257.744,16.321 256.955,16.321 256.504,16.321 C256.167,16.321 255.829,16.209 255.829,15.814 C255.829,15.476 256.224,15.307 257.012,15.307 C259.207,15.307 261.572,15.476 262.642,15.476 C263.769,15.476 266.077,15.307 268.16,15.307 C268.779,15.307 269.173,15.476 269.173,15.814 C269.173,16.152 268.835,16.321 268.273,16.321 C267.708,16.321 267.033,16.434 266.246,16.659 C264.951,16.997 263.825,18.573 262.134,21.051 L252.901,34.338" id="Fill-6" fill="#FFFFFF"></path>
            <g id="Group">
                <path d="M33.3329176,35.9830507 L33.3329176,0.578966274 L47.1924961,0.578966274 L47.1924961,38.2023315 C43.5333537,38.2824587 38.7402899,37.4326247 33.3329176,35.9830507" id="Fill-28" fill="#FFFFFF"></path>
                <path d="M47.1924961,58.7950234 L33.3329176,58.7950234 L33.3329176,43.2406331 C37.6476462,45.4987634 42.2683151,47.9147201 47.1924961,50.488503 L47.1924961,58.7950234" id="Fill-29" fill="#FFFFFF"></path>
                <path d="M16.6980241,11.6680859 L30.5576025,11.6680859 L30.5576025,35.2036315 C26.1530343,33.9094558 21.4498102,32.2971993 16.6980241,30.5149759 L16.6980241,11.6680859" id="Fill-30" fill="#FFFFFF"></path>
                <path d="M30.5576025,58.7950234 L16.6980241,58.7950234 L16.6980241,34.5237643 C20.920485,36.7381889 25.5362977,39.1565737 30.5576025,41.788631 L30.5576025,58.7950234" id="Fill-31" fill="#FFFFFF"></path>
                <path d="M13.9275652,58.7950234 L0.0655586229,58.7950234 L0.0655586229,25.7826146 C4.10834037,27.9120558 8.69987206,30.3280125 13.9275652,33.0693341 L13.9275652,58.7950234" id="Fill-32" fill="#FFFFFF"></path>
                <path d="M0.0655586229,22.7547775 L13.9275652,22.7547775 L13.9275652,29.4636099 C9.20006007,27.6352527 4.49197971,25.6830626 0.0655586229,23.7721502 L0.0655586229,22.7547775" id="Fill-33" fill="#FFFFFF"></path>
                <path d="M16.6980241,30.5149759 L16.6980241,34.5237643 C15.7607786,34.0308606 14.8283893,33.5428131 13.9275652,33.0693341 L13.9275652,29.4636099 C14.8526702,29.8205402 15.7777752,30.1677581 16.6980241,30.5149759" id="Fill-34" fill="none"></path>
                <path d="M33.3329176,35.9830507 L33.3329176,43.2406331 C32.393244,42.7477294 31.4705671,42.264538 30.5576025,41.788631 L30.5576025,35.2036315 C31.4997042,35.4804346 32.4223811,35.7378129 33.3329176,35.9830507" id="Fill-35" fill="none"></path>
            </g>
        </g>
    </g>
</svg>
